flags/ir.svg

<svg width="512" height="512" viewBox="0 0 512 512" fill="none" xmlns="http://www.w3.org/2000/svg">
<g clip-path="url(#clip0_1_3364)">
<rect width="512" height="512" fill="var(--flag-palette-white, #eeeeee)"/>
<rect y="335.305" width="512" height="176.695" fill="var(--flag-palette-bright-red, #d80027)"/>
<rect width="512" height="176.7" fill="var(--flag-palette-dark-green, #496e2d)"/>
<path d="M271.785 201H239.785V217H271.785V201Z" fill="var(--flag-palette-bright-red, #d80027)"/>
<path d="M227.879 287.983C220.596 280.202 215.568 270.531 213.409 260.011C212.319 254.704 211.986 249.308 212.389 243.976C210.342 246.218 208.564 248.721 207.106 251.439C202.661 259.729 201.545 269.409 203.981 278.503L188.526 282.644C185.038 269.626 186.634 255.761 193.005 243.878C199.376 231.997 210.033 222.991 222.81 218.691L232.539 229.805C228.424 238.169 227.208 247.663 229.082 256.794C230.956 265.924 235.815 274.172 242.892 280.238C244.441 281.566 246.077 282.772 247.785 283.852V221H263.785V284.12C265.649 282.973 267.43 281.677 269.109 280.238C276.186 274.172 281.044 265.924 282.918 256.794C284.792 247.663 283.576 238.169 279.461 229.805L289.191 218.691C301.967 222.991 312.625 231.997 318.995 243.878C325.367 255.761 326.962 269.626 323.474 282.644L308.019 278.503C310.456 269.409 309.34 259.729 304.894 251.439C303.437 248.721 301.658 246.218 299.611 243.976C300.014 249.308 299.681 254.704 298.591 260.011C296.432 270.531 291.404 280.202 284.122 287.983C287.719 286.722 291.151 284.968 294.314 282.753L303.492 295.859C292.948 303.242 280.247 306.908 267.391 306.279C266.183 306.22 264.981 306.124 263.785 305.99V311H247.785V306.037C246.731 306.146 245.672 306.227 244.609 306.279C231.753 306.908 219.053 303.242 208.509 295.859L217.686 282.753C220.85 284.968 224.282 286.722 227.879 287.983Z" fill="var(--flag-palette-bright-red, #d80027)"/>
<path fill-rule="evenodd" clip-rule="evenodd" d="M103.65 351.3H247.65V319.3H103.65V351.3ZM263.65 351.3H407.649V319.3H263.65V351.3ZM103.65 383.3H311.649V367.3H103.65V383.3ZM279.65 415.3H327.649V447.3H407.649V367.3H391.649V431.3H375.649V367.3H359.649V431.3H343.649V367.3H327.649V399.3H263.65V447.3H311.649V431.3H279.65V415.3ZM183.65 399.3H103.65V447.3H119.65V415.3H167.65V447.3H247.65V399.3H199.65V415.3H231.65V431.3H183.65V399.3ZM135.65 447.3H151.65V431.3H135.65V447.3Z" fill="var(--flag-palette-white, #eeeeee)"/>
<path fill-rule="evenodd" clip-rule="evenodd" d="M-216.348 351.3H-72.3483V319.3H-216.348V351.3ZM-56.3483 351.3H87.651V319.3H-56.3483V351.3ZM-216.348 383.3H-8.34856V367.3H-216.348V383.3ZM-40.3484 415.3H7.65137V447.3H87.651V367.3H71.6511V431.3H55.6512V367.3H39.6512V431.3H23.6513V367.3H7.65137V399.3H-56.3484V447.3H-8.34856V431.3H-40.3484V415.3ZM-136.348 399.3H-216.348V447.3H-200.348V415.3H-152.348V447.3H-72.3483V399.3H-120.348V415.3H-88.3482V431.3H-136.348V399.3ZM-184.348 447.3H-168.348V431.3H-184.348V447.3Z" fill="var(--flag-palette-white, #eeeeee)"/>
<path fill-rule="evenodd" clip-rule="evenodd" d="M423.65 351.3H567.65V319.3H423.65V351.3ZM583.65 351.3H727.649V319.3H583.65V351.3ZM423.65 383.3H631.649V367.3H423.65V383.3ZM599.65 415.3H647.649V447.299H727.649V367.3H711.649V431.3H695.649V367.3H679.649V431.3H663.649V367.3H647.649V399.3H583.65V447.299H631.649V431.3H599.65V415.3ZM503.65 399.3H423.65V447.299H439.65V415.3H487.65V447.299H567.65V399.3H519.65V415.3H551.65V431.3H503.65V399.3ZM455.65 447.299H471.65V431.3H455.65V447.299Z" fill="var(--flag-palette-white, #eeeeee)"/>
<path fill-rule="evenodd" clip-rule="evenodd" d="M103.65 80.7001H311.65V64.7002H103.65V80.7001ZM279.65 112.7H327.649V144.7H407.649V64.7002H391.649V128.7H375.649V64.7002H359.649V128.7H343.649V64.7002H327.649V96.7001H263.65V144.7H311.65V128.7H279.65V112.7ZM183.65 96.7001H103.65V144.7H119.65V112.7H167.65V144.7H247.65V96.7001H199.65V112.7H231.65V128.7H183.65V96.7001ZM135.65 144.7H151.65V128.7H135.65V144.7ZM103.65 192.7H247.65V160.7H103.65V192.7ZM263.65 192.7H407.649V160.7H263.65V192.7Z" fill="var(--flag-palette-white, #eeeeee)"/>
<path fill-rule="evenodd" clip-rule="evenodd" d="M-216.35 80.7001H-8.35049V64.7002H-216.35V80.7001ZM-40.3504 112.7H7.64943V144.7H87.6491V64.7002H71.6492V128.7H55.6492V64.7002H39.6493V128.7H23.6494V64.7002H7.64943V96.7001H-56.3503V144.7H-8.35049V128.7H-40.3504V112.7ZM-136.35 96.7001H-216.35V144.7H-200.35V112.7H-152.35V144.7H-72.3502V96.7001H-120.35V112.7H-88.3502V128.7H-136.35V96.7001ZM-184.35 144.7H-168.35V128.7H-184.35V144.7ZM-216.35 192.7H-72.3502V160.7H-216.35V192.7ZM-56.3503 192.7H87.6491V160.7H-56.3503V192.7Z" fill="var(--flag-palette-white, #eeeeee)"/>
<path fill-rule="evenodd" clip-rule="evenodd" d="M423.648 80.7001H631.648V64.7002H423.648V80.7001ZM599.648 112.7H647.647V144.7H727.647V64.7002H711.647V128.7H695.647V64.7002H679.647V128.7H663.647V64.7002H647.647V96.7001H583.648V144.7H631.648V128.7H599.648V112.7ZM503.648 96.7001H423.648V144.7H439.648V112.7H487.648V144.7H567.648V96.7001H519.648V112.7H551.648V128.7H503.648V96.7001ZM455.648 144.7H471.648V128.7H455.648V144.7ZM423.648 192.7H567.648V160.7H423.648V192.7ZM583.648 192.7H727.647V160.7H583.648V192.7Z" fill="var(--flag-palette-white, #eeeeee)"/>
</g>
<defs>
<clipPath id="clip0_1_3364">
<rect width="512" height="512" fill="white"/>
</clipPath>
</defs>
</svg>

<svg xmlns="http://www.w3.org/2000/svg" width="512" height="512" fill="none"><g clip-path="url(#a)"><path fill="var(--flag-palette-white, #eeeeee)" d="M0 0h512v512H0z"/><path fill="var(--flag-palette-bright-red, #d80027)" d="M0 335.3h512V512H0z"/><path fill="var(--flag-palette-dark-green, #496e2d)" d="M0 0h512v176.7H0z"/><path fill="var(--flag-palette-bright-red, #d80027)" d="M271.8 201h-32v16h32zm-43.9 87a58 58 0 0 1-15.5-44 37 37 0 0 0-8.4 34.5l-15.5 4.1a53 53 0 0 1 34.3-64l9.7 11.2a42 42 0 0 0 15.3 54V221h16v63.1a42 42 0 0 0 15.7-54.3l9.7-11.1a53 53 0 0 1 34.3 64l-15.5-4.2a37 37 0 0 0-8.4-34.5 58 58 0 0 1-15.5 44q5.4-2 10.2-5.2l9.2 13a58 58 0 0 1-39.7 10.2v5h-16v-5a59 59 0 0 1-39.3-10.1l9.2-13.1a42 42 0 0 0 10.2 5.2"/><path fill="var(--flag-palette-white, #eeeeee)" fill-rule="evenodd" d="M103.7 351.3h144v-32h-144zm160 0h144v-32h-144zm-160 32h208v-16h-208zm176 32h48v32h80v-80h-16v64h-16v-64h-16v64h-16v-64h-16v32h-64v48h48v-16h-32zm-96-16h-80v48h16v-32h48v32h80v-48h-48v16h32v16h-48zm-48 48h16v-16h-16zm-352-96h144v-32h-144zm160 0h144v-32h-144zm-160 32h208v-16h-208zm176 32h48v32h80v-80h-16v64h-16v-64h-16v64h-16v-64h-16v32h-64v48h48v-16h-32zm-96-16h-80v48h16v-32h48v32h80v-48h-48v16h32v16h-48zm-48 48h16v-16h-16zm608-96h144v-32h-144zm160 0h144v-32h-144zm-160 32h208v-16h-208zm176 32h48v32h80v-80h-16v64h-16v-64h-16v64h-16v-64h-16v32h-64v48h48v-16h-32zm-96-16h-80v48h16v-32h48v32h80v-48h-48v16h32v16h-48zm-48 48h16v-16h-16zm-352-366.6h208v-16h-208zm176 32h48v32h80v-80h-16v64h-16v-64h-16v64h-16v-64h-16v32h-64v48h48v-16h-32zm-96-16h-80v48h16v-32h48v32h80v-48h-48v16h32v16h-48zm-48 48h16v-16h-16zm-32 48h144v-32h-144zm160 0h144v-32h-144zm-480-112h208v-16h-208zm176 32h48v32h80v-80h-16v64h-16v-64h-16v64h-16v-64h-16v32h-64v48h48v-16h-32zm-96-16h-80v48h16v-32h48v32h80v-48h-48v16h32v16h-48zm-48 48h16v-16h-16zm-32 48h144v-32h-144zm160 0h144v-32h-144zm479.9-112h208v-16h-208zm176 32h48v32h80v-80h-16v64h-16v-64h-16v64h-16v-64h-16v32h-64v48h48v-16h-32zm-96-16h-80v48h16v-32h48v32h80v-48h-48v16h32v16h-48zm-48 48h16v-16h-16zm-32 48h144v-32h-144zm160 0h144v-32h-144z" clip-rule="evenodd"/></g><defs><clipPath id="a"><path fill="#fff" d="M0 0h512v512H0z"/></clipPath></defs></svg>
